apps/www/public/images/logos/frameworks/expo.svg

<svg width="61" height="61" viewBox="0 0 61 61" fill="none" xmlns="http://www.w3.org/2000/svg">
<path d="M45.4993 25.7267C45.1641 25.261 44.713 24.8888 44.1897 24.6461C43.6649 24.4025 43.0858 24.2961 42.5075 24.337C41.9293 24.3779 41.3713 24.5648 40.887 24.8798C40.4049 25.1938 40.0133 25.6259 39.7501 26.1341C39.4914 26.6796 39.4081 27.2905 39.5116 27.8843C39.6151 28.4781 39.9004 29.0262 40.3289 29.4545C41.5021 29.5461 42.6699 29.2198 43.6213 28.5346C44.5688 27.8532 45.2367 26.8559 45.4993 25.7267ZM35.5054 12.9135L33.3646 11.7629L24.0484 16.8458L24.7911 17.24L26.204 17.9672L28.7612 16.5742L35.5069 12.8901L35.5054 12.9135ZM36.3676 12.563C36.4226 12.5766 36.4732 12.6038 36.5146 12.6422C36.5559 12.6805 36.5867 12.7287 36.6039 12.7821L39.725 21.809C39.7573 21.8805 39.7599 21.9617 39.7323 22.0352C39.7047 22.1086 39.6491 22.1684 39.5774 22.2018C38.3894 22.8394 37.454 23.855 36.9228 25.0842C36.3939 26.3099 36.3027 27.6772 36.6644 28.961C37.0984 30.3611 38.0154 31.5661 39.2555 32.3662C40.4987 33.1693 41.9898 33.5197 43.4692 33.3591C43.5501 33.3544 43.6305 33.3742 43.6996 33.416C43.7688 33.4577 43.8233 33.5194 43.856 33.5927L47.0805 42.8576C47.1012 42.9322 47.0979 43.0113 47.0712 43.0841C47.0445 43.1568 46.9957 43.2195 46.9314 43.2636L37.0217 48.9437C36.9745 48.9634 36.9238 48.9734 36.8726 48.9729C36.7811 48.9896 36.6865 48.9741 36.6054 48.9291L33.1284 46.7899C33.0651 46.7575 33.0136 46.7065 32.9808 46.6439L26.1892 31.3367L15.8469 37.1045C15.785 37.1353 15.7171 37.1525 15.6478 37.1551C15.5785 37.1576 15.5094 37.1453 15.4454 37.1191L13.0949 35.8078C13.0187 35.7673 12.961 35.6996 12.9335 35.6185C12.9061 35.5373 12.911 35.4489 12.9473 35.3712L22.9943 16.6808C23.0319 16.6171 23.0887 16.5665 23.1567 16.5362L33.1742 11.059C33.229 11.0305 33.2901 11.0156 33.3521 11.0156C33.4141 11.0156 33.4751 11.0305 33.53 11.059L36.3691 12.563H36.3676ZM23.9451 17.5846L23.4579 17.3379L13.7726 35.415L15.5399 36.3904L23.8919 25.6799C23.9329 25.6305 23.9853 25.5915 24.0446 25.5661C24.1039 25.5407 24.1685 25.5297 24.233 25.5339C24.296 25.5452 24.3556 25.5706 24.4071 25.6084C24.4586 25.6461 24.5005 25.6951 24.5297 25.7515L33.6245 46.2905L36.0546 47.761L26.2926 19.7837L25.8777 18.6185L23.9318 17.57L23.9466 17.5846H23.9451ZM38.9233 28.3638C38.7009 27.558 38.7634 26.7013 39.1005 25.9355C39.439 25.1661 40.0313 24.5329 40.7807 24.1394C41.5429 23.7223 42.419 23.5541 43.2838 23.659C44.1485 23.7639 44.9575 24.1365 45.5952 24.7235C45.95 25.0575 46.2345 25.4577 46.4321 25.901C46.6297 26.3443 46.7366 26.8219 46.7466 27.3063C46.7566 27.7907 46.6696 28.2722 46.4904 28.7231C46.3113 29.174 46.0437 29.5854 45.703 29.9335L45.5952 30.0401C44.8392 30.7444 43.8405 31.1379 42.8018 31.1406C41.7632 31.1433 40.7624 30.7551 40.0026 30.0547C39.5029 29.5913 39.1313 29.0092 38.9233 28.3638Z" fill="#7E7E7E"/>
</svg>

<svg xmlns="http://www.w3.org/2000/svg" width="61" height="61" fill="none" viewBox="0 0 61 61"><path fill="#7e7e7e" d="M45.5 25.727a3.35 3.35 0 0 0-1.31-1.08 3.42 3.42 0 0 0-3.303.233 3.3 3.3 0 0 0-1.137 1.254 2.915 2.915 0 0 0 .579 3.32 4.97 4.97 0 0 0 3.292-.92 4.8 4.8 0 0 0 1.878-2.807m-9.995-12.813-2.14-1.151-9.317 5.083.743.394 1.413.727 2.557-1.393 6.746-3.684zm.863-.351a.33.33 0 0 1 .236.22l3.121 9.026a.296.296 0 0 1-.148.393 5.96 5.96 0 0 0-2.654 2.882 5.8 5.8 0 0 0-.259 3.877 6.26 6.26 0 0 0 2.591 3.405 6.48 6.48 0 0 0 4.214.993.4.4 0 0 1 .387.234l3.224 9.265a.37.37 0 0 1-.149.406l-9.91 5.68a.4.4 0 0 1-.148.029.4.4 0 0 1-.268-.044l-3.477-2.14a.34.34 0 0 1-.147-.145l-6.792-15.307-10.342 5.768a.49.49 0 0 1-.402.014l-2.35-1.311a.333.333 0 0 1-.148-.437l10.047-18.69a.36.36 0 0 1 .163-.145l10.017-5.477a.39.39 0 0 1 .356 0l2.84 1.504zm-12.423 5.022-.487-.247-9.685 18.077 1.767.975 8.352-10.71a.4.4 0 0 1 .341-.146.42.42 0 0 1 .297.218l9.094 20.539 2.43 1.47-9.761-27.977-.415-1.165-1.946-1.049.015.015zm14.978 10.779a3.63 3.63 0 0 1 .177-2.428c.339-.77.931-1.403 1.68-1.797a4.17 4.17 0 0 1 4.815.585 3.635 3.635 0 0 1 .108 5.21l-.108.106a4.11 4.11 0 0 1-2.793 1.1 4.12 4.12 0 0 1-2.8-1.085 3.97 3.97 0 0 1-1.079-1.691"/></svg>
